picto/arrow-straight-ahead-pointing-down-green-framed.svg

<svg class="color-immutable" width="30" height="30" viewBox="0 0 30 30" fill="none" xmlns="http://www.w3.org/2000/svg"><path d="M30 0H0V30H30V0Z" fill="#237F52"/><path d="M14.9999 25.5L24 16.2242V9.9948L17.4964 16.2242V6H14.9999H12.5036V16.2242L6 9.9948V16.2242L14.9999 25.5Z" fill="white"/></svg>

<svg class="color-immutable" width="30" height="30" viewBox="0 0 30 30" fill="none" xmlns="http://www.w3.org/2000/svg"><g clip-path="url(#a)"><path d="M30 0H0v30h30V0Z" fill="#237F52"/><path d="m15 25.5 9-9.276v-6.23l-6.504 6.23V6h-4.992v10.224L6 9.994v6.23l9 9.276Z" fill="#fff"/></g><defs><clipPath id="a"><path fill="#fff" d="M0 0h30v30H0z"/></clipPath></defs></svg>
